%
(BACK)
(T1  D=3.175 CR=0. - ZMIN=-0.127 - FLAT END MILL)
N10 G90 G94 G17 G91.1
N15 G21
N20 G53 G0 Z0.
(OUTLINE - 2D CONTOUR 4)
N25 M9
N30 T1 M6
(18 FLAT CARBIDE ENDMILL)
N35 S10000 M3
N40 G54
N45 G0 X26.413 Y3.072
N50 G43 Z20. H1
N55 G0 Z10.
N60 G1 Z7. F254.
N65 Z4.317
N70 G18 G3 X26.096 Z4. I-0.317 K0.
N75 G1 X25.778 F762.
N80 G17 G3 X25.461 Y2.755 I0. J-0.317
N85 G1 Y0. F838.2
N90 G2 X24. Y-1.461 I-1.461 J0.
N95 G1 X12.
N100 G2 X10.54 Y0. I0. J1.461
N105 G1 Y2.755
N110 G2 X10.967 Y3.788 I1.46 J0.
N115 G3 Y3.967 I-0.09 J0.09
N120 X10.788 I-0.09 J-0.09
N125 G2 X9.755 Y3.539 I-1.033 J1.033
N130 G1 X0.
N135 G2 X-1.461 Y5. I0. J1.461
N140 G1 Y46.
N145 G2 X0. Y47.46 I1.461 J0.
N150 G1 X9.755
N155 G2 X10.788 Y47.033 I0. J-1.46
N160 G3 X10.967 I0.09 J0.09
N165 Y47.212 I-0.09 J0.09
N170 G2 X10.54 Y48.245 I1.033 J1.033
N175 G1 Y51.
N180 G2 X12. Y52.46 I1.46 J0.
N185 G1 X24.
N190 G2 X25.461 Y51. I0. J-1.46
N195 G1 Y48.245
N200 G2 X25.033 Y47.212 I-1.461 J0.
N205 G3 Y47.033 I0.09 J-0.09
N210 X25.212 I0.09 J0.09
N215 G2 X26.245 Y47.46 I1.033 J-1.033
N220 G1 X33.755
N225 G2 X34.788 Y47.033 I0. J-1.46
N230 G3 X34.967 I0.09 J0.09
N235 Y47.212 I-0.09 J0.09
N240 G2 X34.54 Y48.245 I1.033 J1.033
N245 G1 Y51.
N250 G2 X36. Y52.46 I1.46 J0.
N255 G1 X48.
N260 G2 X49.46 Y51. I0. J-1.46
N265 G1 Y48.245
N270 G2 X49.033 Y47.212 I-1.46 J0.
N275 G3 Y47.033 I0.09 J-0.09
N280 X49.212 I0.09 J0.09
N285 G2 X50.245 Y47.46 I1.033 J-1.033
N290 G1 X55.
N295 G2 X56.46 Y46. I0. J-1.46
N300 G1 Y43.045
N305 G2 X56.033 Y42.012 I-1.46 J0.
N310 G3 Y41.833 I0.09 J-0.09
N315 X56.212 I0.09 J0.09
N320 G2 X57.245 Y42.261 I1.033 J-1.033
N325 G1 X60.
N330 G2 X61.46 Y40.8 I0. J-1.461
N335 G1 Y30.6
N340 G2 X60. Y29.139 I-1.46 J0.
N345 G1 X57.245
N350 G2 X56.212 Y29.567 I0. J1.461
N355 G3 X56.033 I-0.09 J-0.09
N360 Y29.388 I0.09 J-0.09
N365 G2 X56.46 Y28.355 I-1.033 J-1.033
N370 G1 Y22.645
N375 G2 X56.033 Y21.612 I-1.46 J0.
N380 G3 Y21.433 I0.09 J-0.09
N385 X56.212 I0.09 J0.09
N390 G2 X57.245 Y21.861 I1.033 J-1.033
N395 G1 X60.
N400 G2 X61.46 Y20.4 I0. J-1.461
N405 G1 Y10.2
N410 G2 X60. Y8.74 I-1.46 J0.
N415 G1 X57.245
N420 G2 X56.212 Y9.167 I0. J1.46
N425 G3 X56.033 I-0.09 J-0.09
N430 Y8.988 I0.09 J-0.09
N435 G2 X56.46 Y7.955 I-1.033 J-1.033
N440 G1 Y5.
N445 G2 X55. Y3.539 I-1.46 J0.
N450 G1 X50.245
N455 G2 X49.212 Y3.967 I0. J1.461
N460 G3 X49.033 I-0.09 J-0.09
N465 Y3.788 I0.09 J-0.09
N470 G2 X49.46 Y2.755 I-1.033 J-1.033
N475 G1 Y0.
N480 G2 X48. Y-1.461 I-1.46 J0.
N485 G1 X36.
N490 G2 X34.54 Y0. I0. J1.461
N495 G1 Y2.755
N500 G2 X34.967 Y3.788 I1.46 J0.
N505 G3 Y3.967 I-0.09 J0.09
N510 X34.788 I-0.09 J-0.09
N515 G2 X33.755 Y3.539 I-1.033 J1.033
N520 G1 X26.245
N525 G2 X25.212 Y3.967 I0. J1.461
N530 G3 X25.033 I-0.09 J-0.09
N535 Y3.788 I0.09 J-0.09
N540 G2 X25.461 Y2.755 I-1.033 J-1.033
N545 G3 X25.778 Y2.437 I0.317 J0. F1016.
N550 G1 X26.096
N555 G18 G2 X26.413 Z4.317 I0. K0.318
N560 G0 Z10.
N565 Y3.072
N570 G1 Z6. F254.
N575 Z3.317
N580 G3 X26.096 Z3. I-0.317 K0.
N585 G1 X25.778 F762.
N590 G17 G3 X25.461 Y2.755 I0. J-0.317
N595 G1 Y0. F838.2
N600 G2 X24. Y-1.461 I-1.461 J0.
N605 G1 X12.
N610 G2 X10.54 Y0. I0. J1.461
N615 G1 Y2.755
N620 G2 X10.967 Y3.788 I1.46 J0.
N625 G3 Y3.967 I-0.09 J0.09
N630 X10.788 I-0.09 J-0.09
N635 G2 X9.755 Y3.539 I-1.033 J1.033
N640 G1 X0.
N645 G2 X-1.461 Y5. I0. J1.461
N650 G1 Y46.
N655 G2 X0. Y47.46 I1.461 J0.
N660 G1 X9.755
N665 G2 X10.788 Y47.033 I0. J-1.46
N670 G3 X10.967 I0.09 J0.09
N675 Y47.212 I-0.09 J0.09
N680 G2 X10.54 Y48.245 I1.033 J1.033
N685 G1 Y51.
N690 G2 X12. Y52.46 I1.46 J0.
N695 G1 X24.
N700 G2 X25.461 Y51. I0. J-1.46
N705 G1 Y48.245
N710 G2 X25.033 Y47.212 I-1.461 J0.
N715 G3 Y47.033 I0.09 J-0.09
N720 X25.212 I0.09 J0.09
N725 G2 X26.245 Y47.46 I1.033 J-1.033
N730 G1 X33.755
N735 G2 X34.788 Y47.033 I0. J-1.46
N740 G3 X34.967 I0.09 J0.09
N745 Y47.212 I-0.09 J0.09
N750 G2 X34.54 Y48.245 I1.033 J1.033
N755 G1 Y51.
N760 G2 X36. Y52.46 I1.46 J0.
N765 G1 X48.
N770 G2 X49.46 Y51. I0. J-1.46
N775 G1 Y48.245
N780 G2 X49.033 Y47.212 I-1.46 J0.
N785 G3 Y47.033 I0.09 J-0.09
N790 X49.212 I0.09 J0.09
N795 G2 X50.245 Y47.46 I1.033 J-1.033
N800 G1 X55.
N805 G2 X56.46 Y46. I0. J-1.46
N810 G1 Y43.045
N815 G2 X56.033 Y42.012 I-1.46 J0.
N820 G3 Y41.833 I0.09 J-0.09
N825 X56.212 I0.09 J0.09
N830 G2 X57.245 Y42.261 I1.033 J-1.033
N835 G1 X60.
N840 G2 X61.46 Y40.8 I0. J-1.461
N845 G1 Y30.6
N850 G2 X60. Y29.139 I-1.46 J0.
N855 G1 X57.245
N860 G2 X56.212 Y29.567 I0. J1.461
N865 G3 X56.033 I-0.09 J-0.09
N870 Y29.388 I0.09 J-0.09
N875 G2 X56.46 Y28.355 I-1.033 J-1.033
N880 G1 Y22.645
N885 G2 X56.033 Y21.612 I-1.46 J0.
N890 G3 Y21.433 I0.09 J-0.09
N895 X56.212 I0.09 J0.09
N900 G2 X57.245 Y21.861 I1.033 J-1.033
N905 G1 X60.
N910 G2 X61.46 Y20.4 I0. J-1.461
N915 G1 Y10.2
N920 G2 X60. Y8.74 I-1.46 J0.
N925 G1 X57.245
N930 G2 X56.212 Y9.167 I0. J1.46
N935 G3 X56.033 I-0.09 J-0.09
N940 Y8.988 I0.09 J-0.09
N945 G2 X56.46 Y7.955 I-1.033 J-1.033
N950 G1 Y5.
N955 G2 X55. Y3.539 I-1.46 J0.
N960 G1 X50.245
N965 G2 X49.212 Y3.967 I0. J1.461
N970 G3 X49.033 I-0.09 J-0.09
N975 Y3.788 I0.09 J-0.09
N980 G2 X49.46 Y2.755 I-1.033 J-1.033
N985 G1 Y0.
N990 G2 X48. Y-1.461 I-1.46 J0.
N995 G1 X36.
N1000 G2 X34.54 Y0. I0. J1.461
N1005 G1 Y2.755
N1010 G2 X34.967 Y3.788 I1.46 J0.
N1015 G3 Y3.967 I-0.09 J0.09
N1020 X34.788 I-0.09 J-0.09
N1025 G2 X33.755 Y3.539 I-1.033 J1.033
N1030 G1 X26.245
N1035 G2 X25.212 Y3.967 I0. J1.461
N1040 G3 X25.033 I-0.09 J-0.09
N1045 Y3.788 I0.09 J-0.09
N1050 G2 X25.461 Y2.755 I-1.033 J-1.033
N1055 G3 X25.778 Y2.437 I0.317 J0. F1016.
N1060 G1 X26.096
N1065 G18 G2 X26.413 Z3.317 I0. K0.318
N1070 G0 Z10.
N1075 Y3.072
N1080 G1 Z5. F254.
N1085 Z2.317
N1090 G3 X26.096 Z2. I-0.317 K0.
N1095 G1 X25.778 F762.
N1100 G17 G3 X25.461 Y2.755 I0. J-0.317
N1105 G1 Y0. F838.2
N1110 G2 X24. Y-1.461 I-1.461 J0.
N1115 G1 X12.
N1120 G2 X10.54 Y0. I0. J1.461
N1125 G1 Y2.755
N1130 G2 X10.967 Y3.788 I1.46 J0.
N1135 G3 Y3.967 I-0.09 J0.09
N1140 X10.788 I-0.09 J-0.09
N1145 G2 X9.755 Y3.539 I-1.033 J1.033
N1150 G1 X0.
N1155 G2 X-1.461 Y5. I0. J1.461
N1160 G1 Y46.
N1165 G2 X0. Y47.46 I1.461 J0.
N1170 G1 X9.755
N1175 G2 X10.788 Y47.033 I0. J-1.46
N1180 G3 X10.967 I0.09 J0.09
N1185 Y47.212 I-0.09 J0.09
N1190 G2 X10.54 Y48.245 I1.033 J1.033
N1195 G1 Y51.
N1200 G2 X12. Y52.46 I1.46 J0.
N1205 G1 X24.
N1210 G2 X25.461 Y51. I0. J-1.46
N1215 G1 Y48.245
N1220 G2 X25.033 Y47.212 I-1.461 J0.
N1225 G3 Y47.033 I0.09 J-0.09
N1230 X25.212 I0.09 J0.09
N1235 G2 X26.245 Y47.46 I1.033 J-1.033
N1240 G1 X33.755
N1245 G2 X34.788 Y47.033 I0. J-1.46
N1250 G3 X34.967 I0.09 J0.09
N1255 Y47.212 I-0.09 J0.09
N1260 G2 X34.54 Y48.245 I1.033 J1.033
N1265 G1 Y51.
N1270 G2 X36. Y52.46 I1.46 J0.
N1275 G1 X48.
N1280 G2 X49.46 Y51. I0. J-1.46
N1285 G1 Y48.245
N1290 G2 X49.033 Y47.212 I-1.46 J0.
N1295 G3 Y47.033 I0.09 J-0.09
N1300 X49.212 I0.09 J0.09
N1305 G2 X50.245 Y47.46 I1.033 J-1.033
N1310 G1 X55.
N1315 G2 X56.46 Y46. I0. J-1.46
N1320 G1 Y43.045
N1325 G2 X56.033 Y42.012 I-1.46 J0.
N1330 G3 Y41.833 I0.09 J-0.09
N1335 X56.212 I0.09 J0.09
N1340 G2 X57.245 Y42.261 I1.033 J-1.033
N1345 G1 X60.
N1350 G2 X61.46 Y40.8 I0. J-1.461
N1355 G1 Y30.6
N1360 G2 X60. Y29.139 I-1.46 J0.
N1365 G1 X57.245
N1370 G2 X56.212 Y29.567 I0. J1.461
N1375 G3 X56.033 I-0.09 J-0.09
N1380 Y29.388 I0.09 J-0.09
N1385 G2 X56.46 Y28.355 I-1.033 J-1.033
N1390 G1 Y22.645
N1395 G2 X56.033 Y21.612 I-1.46 J0.
N1400 G3 Y21.433 I0.09 J-0.09
N1405 X56.212 I0.09 J0.09
N1410 G2 X57.245 Y21.861 I1.033 J-1.033
N1415 G1 X60.
N1420 G2 X61.46 Y20.4 I0. J-1.461
N1425 G1 Y10.2
N1430 G2 X60. Y8.74 I-1.46 J0.
N1435 G1 X57.245
N1440 G2 X56.212 Y9.167 I0. J1.46
N1445 G3 X56.033 I-0.09 J-0.09
N1450 Y8.988 I0.09 J-0.09
N1455 G2 X56.46 Y7.955 I-1.033 J-1.033
N1460 G1 Y5.
N1465 G2 X55. Y3.539 I-1.46 J0.
N1470 G1 X50.245
N1475 G2 X49.212 Y3.967 I0. J1.461
N1480 G3 X49.033 I-0.09 J-0.09
N1485 Y3.788 I0.09 J-0.09
N1490 G2 X49.46 Y2.755 I-1.033 J-1.033
N1495 G1 Y0.
N1500 G2 X48. Y-1.461 I-1.46 J0.
N1505 G1 X36.
N1510 G2 X34.54 Y0. I0. J1.461
N1515 G1 Y2.755
N1520 G2 X34.967 Y3.788 I1.46 J0.
N1525 G3 Y3.967 I-0.09 J0.09
N1530 X34.788 I-0.09 J-0.09
N1535 G2 X33.755 Y3.539 I-1.033 J1.033
N1540 G1 X26.245
N1545 G2 X25.212 Y3.967 I0. J1.461
N1550 G3 X25.033 I-0.09 J-0.09
N1555 Y3.788 I0.09 J-0.09
N1560 G2 X25.461 Y2.755 I-1.033 J-1.033
N1565 G3 X25.778 Y2.437 I0.317 J0. F1016.
N1570 G1 X26.096
N1575 G18 G2 X26.413 Z2.317 I0. K0.318
N1580 G0 Z10.
N1585 Y3.072
N1590 G1 Z4. F254.
N1595 Z1.317
N1600 G3 X26.096 Z1. I-0.317 K0.
N1605 G1 X25.778 F762.
N1610 G17 G3 X25.461 Y2.755 I0. J-0.317
N1615 G1 Y0. F838.2
N1620 G2 X24. Y-1.461 I-1.461 J0.
N1625 G1 X12.
N1630 G2 X10.54 Y0. I0. J1.461
N1635 G1 Y2.755
N1640 G2 X10.967 Y3.788 I1.46 J0.
N1645 G3 Y3.967 I-0.09 J0.09
N1650 X10.788 I-0.09 J-0.09
N1655 G2 X9.755 Y3.539 I-1.033 J1.033
N1660 G1 X0.
N1665 G2 X-1.461 Y5. I0. J1.461
N1670 G1 Y46.
N1675 G2 X0. Y47.46 I1.461 J0.
N1680 G1 X9.755
N1685 G2 X10.788 Y47.033 I0. J-1.46
N1690 G3 X10.967 I0.09 J0.09
N1695 Y47.212 I-0.09 J0.09
N1700 G2 X10.54 Y48.245 I1.033 J1.033
N1705 G1 Y51.
N1710 G2 X12. Y52.46 I1.46 J0.
N1715 G1 X24.
N1720 G2 X25.461 Y51. I0. J-1.46
N1725 G1 Y48.245
N1730 G2 X25.033 Y47.212 I-1.461 J0.
N1735 G3 Y47.033 I0.09 J-0.09
N1740 X25.212 I0.09 J0.09
N1745 G2 X26.245 Y47.46 I1.033 J-1.033
N1750 G1 X33.755
N1755 G2 X34.788 Y47.033 I0. J-1.46
N1760 G3 X34.967 I0.09 J0.09
N1765 Y47.212 I-0.09 J0.09
N1770 G2 X34.54 Y48.245 I1.033 J1.033
N1775 G1 Y51.
N1780 G2 X36. Y52.46 I1.46 J0.
N1785 G1 X48.
N1790 G2 X49.46 Y51. I0. J-1.46
N1795 G1 Y48.245
N1800 G2 X49.033 Y47.212 I-1.46 J0.
N1805 G3 Y47.033 I0.09 J-0.09
N1810 X49.212 I0.09 J0.09
N1815 G2 X50.245 Y47.46 I1.033 J-1.033
N1820 G1 X55.
N1825 G2 X56.46 Y46. I0. J-1.46
N1830 G1 Y43.045
N1835 G2 X56.033 Y42.012 I-1.46 J0.
N1840 G3 Y41.833 I0.09 J-0.09
N1845 X56.212 I0.09 J0.09
N1850 G2 X57.245 Y42.261 I1.033 J-1.033
N1855 G1 X60.
N1860 G2 X61.46 Y40.8 I0. J-1.461
N1865 G1 Y30.6
N1870 G2 X60. Y29.139 I-1.46 J0.
N1875 G1 X57.245
N1880 G2 X56.212 Y29.567 I0. J1.461
N1885 G3 X56.033 I-0.09 J-0.09
N1890 Y29.388 I0.09 J-0.09
N1895 G2 X56.46 Y28.355 I-1.033 J-1.033
N1900 G1 Y22.645
N1905 G2 X56.033 Y21.612 I-1.46 J0.
N1910 G3 Y21.433 I0.09 J-0.09
N1915 X56.212 I0.09 J0.09
N1920 G2 X57.245 Y21.861 I1.033 J-1.033
N1925 G1 X60.
N1930 G2 X61.46 Y20.4 I0. J-1.461
N1935 G1 Y10.2
N1940 G2 X60. Y8.74 I-1.46 J0.
N1945 G1 X57.245
N1950 G2 X56.212 Y9.167 I0. J1.46
N1955 G3 X56.033 I-0.09 J-0.09
N1960 Y8.988 I0.09 J-0.09
N1965 G2 X56.46 Y7.955 I-1.033 J-1.033
N1970 G1 Y5.
N1975 G2 X55. Y3.539 I-1.46 J0.
N1980 G1 X50.245
N1985 G2 X49.212 Y3.967 I0. J1.461
N1990 G3 X49.033 I-0.09 J-0.09
N1995 Y3.788 I0.09 J-0.09
N2000 G2 X49.46 Y2.755 I-1.033 J-1.033
N2005 G1 Y0.
N2010 G2 X48. Y-1.461 I-1.46 J0.
N2015 G1 X36.
N2020 G2 X34.54 Y0. I0. J1.461
N2025 G1 Y2.755
N2030 G2 X34.967 Y3.788 I1.46 J0.
N2035 G3 Y3.967 I-0.09 J0.09
N2040 X34.788 I-0.09 J-0.09
N2045 G2 X33.755 Y3.539 I-1.033 J1.033
N2050 G1 X26.245
N2055 G2 X25.212 Y3.967 I0. J1.461
N2060 G3 X25.033 I-0.09 J-0.09
N2065 Y3.788 I0.09 J-0.09
N2070 G2 X25.461 Y2.755 I-1.033 J-1.033
N2075 G3 X25.778 Y2.437 I0.317 J0. F1016.
N2080 G1 X26.096
N2085 G18 G2 X26.413 Z1.317 I0. K0.317
N2090 G0 Z10.
N2095 Y3.072
N2100 G1 Z3. F254.
N2105 Z0.754
N2110 G3 X26.096 Z0.437 I-0.317 K0.
N2115 G1 X25.778 F762.
N2120 G17 G3 X25.461 Y2.755 I0. J-0.317
N2125 G1 Y0. F838.2
N2130 G2 X24. Y-1.461 I-1.461 J0.
N2135 G1 X12.
N2140 G2 X10.54 Y0. I0. J1.461
N2145 G1 Y2.755
N2150 G2 X10.967 Y3.788 I1.46 J0.
N2155 G3 Y3.967 I-0.09 J0.09
N2160 X10.788 I-0.09 J-0.09
N2165 G2 X9.755 Y3.539 I-1.033 J1.033
N2170 G1 X0.
N2175 G2 X-1.461 Y5. I0. J1.461
N2180 G1 Y14.448
N2185 Z1.
N2190 Y19.623
N2195 Z0.437 F254.
N2200 Y33.382 F838.2
N2205 Z1.
N2210 Y38.557
N2215 Z0.437 F254.
N2220 Y46. F838.2
N2225 G2 X0. Y47.46 I1.461 J0.
N2230 G1 X9.755
N2235 G2 X10.788 Y47.033 I0. J-1.46
N2240 G3 X10.967 I0.09 J0.09
N2245 Y47.212 I-0.09 J0.09
N2250 G2 X10.54 Y48.245 I1.033 J1.033
N2255 G1 Y51.
N2260 G2 X12. Y52.46 I1.46 J0.
N2265 G1 X24.
N2270 G2 X25.461 Y51. I0. J-1.46
N2275 G1 Y48.245
N2280 G2 X25.033 Y47.212 I-1.461 J0.
N2285 G3 Y47.033 I0.09 J-0.09
N2290 X25.212 I0.09 J0.09
N2295 G2 X26.245 Y47.46 I1.033 J-1.033
N2300 G1 X33.755
N2305 G2 X34.788 Y47.033 I0. J-1.46
N2310 G3 X34.967 I0.09 J0.09
N2315 Y47.212 I-0.09 J0.09
N2320 G2 X34.54 Y48.245 I1.033 J1.033
N2325 G1 Y51.
N2330 G2 X36. Y52.46 I1.46 J0.
N2335 G1 X48.
N2340 G2 X49.46 Y51. I0. J-1.46
N2345 G1 Y48.245
N2350 G2 X49.033 Y47.212 I-1.46 J0.
N2355 G3 Y47.033 I0.09 J-0.09
N2360 X49.212 I0.09 J0.09
N2365 G2 X50.245 Y47.46 I1.033 J-1.033
N2370 G1 X55.
N2375 G2 X56.46 Y46. I0. J-1.46
N2380 G1 Y43.045
N2385 G2 X56.033 Y42.012 I-1.46 J0.
N2390 G3 Y41.833 I0.09 J-0.09
N2395 X56.212 I0.09 J0.09
N2400 G2 X57.245 Y42.261 I1.033 J-1.033
N2405 G1 X60.
N2410 G2 X61.46 Y40.8 I0. J-1.461
N2415 G1 Y38.056
N2420 Z1.
N2425 Y32.881
N2430 Z0.437 F254.
N2435 Y30.6 F838.2
N2440 G2 X60. Y29.139 I-1.46 J0.
N2445 G1 X57.245
N2450 G2 X56.212 Y29.567 I0. J1.461
N2455 G3 X56.033 I-0.09 J-0.09
N2460 Y29.388 I0.09 J-0.09
N2465 G2 X56.46 Y28.355 I-1.033 J-1.033
N2470 G1 Y22.645
N2475 G2 X56.033 Y21.612 I-1.46 J0.
N2480 G3 Y21.433 I0.09 J-0.09
N2485 X56.212 I0.09 J0.09
N2490 G2 X57.245 Y21.861 I1.033 J-1.033
N2495 G1 X60.
N2500 G2 X61.46 Y20.4 I0. J-1.461
N2505 G1 Y17.651
N2510 Z1.
N2515 Y12.476
N2520 Z0.437 F254.
N2525 Y10.2 F838.2
N2530 G2 X60. Y8.74 I-1.46 J0.
N2535 G1 X57.245
N2540 G2 X56.212 Y9.167 I0. J1.46
N2545 G3 X56.033 I-0.09 J-0.09
N2550 Y8.988 I0.09 J-0.09
N2555 G2 X56.46 Y7.955 I-1.033 J-1.033
N2560 G1 Y5.
N2565 G2 X55. Y3.539 I-1.46 J0.
N2570 G1 X50.245
N2575 G2 X49.212 Y3.967 I0. J1.461
N2580 G3 X49.033 I-0.09 J-0.09
N2585 Y3.788 I0.09 J-0.09
N2590 G2 X49.46 Y2.755 I-1.033 J-1.033
N2595 G1 Y0.
N2600 G2 X48. Y-1.461 I-1.46 J0.
N2605 G1 X36.
N2610 G2 X34.54 Y0. I0. J1.461
N2615 G1 Y2.755
N2620 G2 X34.967 Y3.788 I1.46 J0.
N2625 G3 Y3.967 I-0.09 J0.09
N2630 X34.788 I-0.09 J-0.09
N2635 G2 X33.755 Y3.539 I-1.033 J1.033
N2640 G1 X26.245
N2645 G2 X25.212 Y3.967 I0. J1.461
N2650 G3 X25.033 I-0.09 J-0.09
N2655 Y3.788 I0.09 J-0.09
N2660 G2 X25.461 Y2.755 I-1.033 J-1.033
N2665 G3 X25.778 Y2.437 I0.317 J0. F1016.
N2670 G1 X26.096
N2675 G18 G2 X26.413 Z0.754 I0. K0.317
N2680 G0 Z10.
N2685 Y3.072
N2690 G1 Z2.437 F254.
N2695 Z0.19
N2700 G3 X26.096 Z-0.127 I-0.317 K0.
N2705 G1 X25.778 F762.
N2710 G17 G3 X25.461 Y2.755 I0. J-0.317
N2715 G1 Y0. F838.2
N2720 G2 X24. Y-1.461 I-1.461 J0.
N2725 G1 X12.
N2730 G2 X10.54 Y0. I0. J1.461
N2735 G1 Y2.755
N2740 G2 X10.967 Y3.788 I1.46 J0.
N2745 G3 Y3.967 I-0.09 J0.09
N2750 X10.788 I-0.09 J-0.09
N2755 G2 X9.755 Y3.539 I-1.033 J1.033
N2760 G1 X0.
N2765 G2 X-1.461 Y5. I0. J1.461
N2770 G1 Y14.448
N2775 Z1.
N2780 Y19.623
N2785 Z-0.127 F254.
N2790 Y33.382 F838.2
N2795 Z1.
N2800 Y38.557
N2805 Z-0.127 F254.
N2810 Y46. F838.2
N2815 G2 X0. Y47.46 I1.461 J0.
N2820 G1 X9.755
N2825 G2 X10.788 Y47.033 I0. J-1.46
N2830 G3 X10.967 I0.09 J0.09
N2835 Y47.212 I-0.09 J0.09
N2840 G2 X10.54 Y48.245 I1.033 J1.033
N2845 G1 Y51.
N2850 G2 X12. Y52.46 I1.46 J0.
N2855 G1 X24.
N2860 G2 X25.461 Y51. I0. J-1.46
N2865 G1 Y48.245
N2870 G2 X25.033 Y47.212 I-1.461 J0.
N2875 G3 Y47.033 I0.09 J-0.09
N2880 X25.212 I0.09 J0.09
N2885 G2 X26.245 Y47.46 I1.033 J-1.033
N2890 G1 X33.755
N2895 G2 X34.788 Y47.033 I0. J-1.46
N2900 G3 X34.967 I0.09 J0.09
N2905 Y47.212 I-0.09 J0.09
N2910 G2 X34.54 Y48.245 I1.033 J1.033
N2915 G1 Y51.
N2920 G2 X36. Y52.46 I1.46 J0.
N2925 G1 X48.
N2930 G2 X49.46 Y51. I0. J-1.46
N2935 G1 Y48.245
N2940 G2 X49.033 Y47.212 I-1.46 J0.
N2945 G3 Y47.033 I0.09 J-0.09
N2950 X49.212 I0.09 J0.09
N2955 G2 X50.245 Y47.46 I1.033 J-1.033
N2960 G1 X55.
N2965 G2 X56.46 Y46. I0. J-1.46
N2970 G1 Y43.045
N2975 G2 X56.033 Y42.012 I-1.46 J0.
N2980 G3 Y41.833 I0.09 J-0.09
N2985 X56.212 I0.09 J0.09
N2990 G2 X57.245 Y42.261 I1.033 J-1.033
N2995 G1 X60.
N3000 G2 X61.46 Y40.8 I0. J-1.461
N3005 G1 Y38.056
N3010 Z1.
N3015 Y32.881
N3020 Z-0.127 F254.
N3025 Y30.6 F838.2
N3030 G2 X60. Y29.139 I-1.46 J0.
N3035 G1 X57.245
N3040 G2 X56.212 Y29.567 I0. J1.461
N3045 G3 X56.033 I-0.09 J-0.09
N3050 Y29.388 I0.09 J-0.09
N3055 G2 X56.46 Y28.355 I-1.033 J-1.033
N3060 G1 Y22.645
N3065 G2 X56.033 Y21.612 I-1.46 J0.
N3070 G3 Y21.433 I0.09 J-0.09
N3075 X56.212 I0.09 J0.09
N3080 G2 X57.245 Y21.861 I1.033 J-1.033
N3085 G1 X60.
N3090 G2 X61.46 Y20.4 I0. J-1.461
N3095 G1 Y17.651
N3100 Z1.
N3105 Y12.476
N3110 Z-0.127 F254.
N3115 Y10.2 F838.2
N3120 G2 X60. Y8.74 I-1.46 J0.
N3125 G1 X57.245
N3130 G2 X56.212 Y9.167 I0. J1.46
N3135 G3 X56.033 I-0.09 J-0.09
N3140 Y8.988 I0.09 J-0.09
N3145 G2 X56.46 Y7.955 I-1.033 J-1.033
N3150 G1 Y5.
N3155 G2 X55. Y3.539 I-1.46 J0.
N3160 G1 X50.245
N3165 G2 X49.212 Y3.967 I0. J1.461
N3170 G3 X49.033 I-0.09 J-0.09
N3175 Y3.788 I0.09 J-0.09
N3180 G2 X49.46 Y2.755 I-1.033 J-1.033
N3185 G1 Y0.
N3190 G2 X48. Y-1.461 I-1.46 J0.
N3195 G1 X36.
N3200 G2 X34.54 Y0. I0. J1.461
N3205 G1 Y2.755
N3210 G2 X34.967 Y3.788 I1.46 J0.
N3215 G3 Y3.967 I-0.09 J0.09
N3220 X34.788 I-0.09 J-0.09
N3225 G2 X33.755 Y3.539 I-1.033 J1.033
N3230 G1 X26.245
N3235 G2 X25.212 Y3.967 I0. J1.461
N3240 G3 X25.033 I-0.09 J-0.09
N3245 Y3.788 I0.09 J-0.09
N3250 G2 X25.461 Y2.755 I-1.033 J-1.033
N3255 G3 X25.778 Y2.437 I0.317 J0. F1016.
N3260 G1 X26.096
N3265 G18 G2 X26.413 Z0.19 I0. K0.318
N3270 G0 Z20.
N3275 G17
N3280 G53 G0 Z0.
N3285 M30
%
